assets/images/simple-illustrations/simple-illustration__piggybank.svg

<svg xmlns="http://www.w3.org/2000/svg" width="48" height="48" fill="none" viewBox="0 0 48 48"><path fill="#FED607" d="M26.1883 15.6619C26.1883 16.0854 26.1038 16.4901 25.9569 16.8633V16.9135C23.9843 16.8288 22.0149 16.8508 20.0454 16.9763V16.9637C19.8703 16.5653 19.7734 16.1262 19.7734 15.6619C19.7734 15.6306 19.7734 15.5992 19.7734 15.5678C19.8235 13.8332 21.2396 12.4436 22.9808 12.4436C24.7221 12.4436 26.1883 13.8834 26.1883 15.6619Z"/><path fill="#FED607" d="M22.9808 3.68896C24.7502 3.68896 26.1883 5.12875 26.1883 6.90731C26.1883 8.68586 24.7534 10.1256 22.9808 10.1256C21.2083 10.1256 19.7734 8.68586 19.7734 6.90731C19.7734 5.12875 21.2083 3.68896 22.9808 3.68896Z"/><path fill="#002140" d="M24.1997 3.68896C25.969 3.68896 27.4071 5.12875 27.4071 6.90731C27.4071 8.68586 25.9722 10.1256 24.1997 10.1256H22.9805C24.7499 10.1256 26.1879 8.68586 26.1879 6.90731C26.1879 5.12875 24.753 3.68896 22.9805 3.68896H24.1997Z"/><path fill="#002140" d="M24.1997 12.4467C25.8721 12.4467 27.2445 13.7328 27.3914 15.3734C27.4008 15.4706 27.4071 15.5678 27.4071 15.6651C27.4071 16.1293 27.3102 16.5685 27.1351 16.9668V16.9763C26.7412 16.9512 26.3473 16.9323 25.9565 16.9135V16.8633C26.1066 16.4932 26.1879 16.0885 26.1879 15.6619C26.1879 13.8865 24.753 12.4436 22.9805 12.4436H24.1997V12.4467Z"/><path fill="#002140" d="M38.6369 22.8986C38.7244 23.3722 38.5837 23.7957 38.3211 23.8459C38.0617 23.8961 37.7772 23.551 37.6896 23.0774C37.599 22.6006 37.7397 22.1802 38.0023 22.1269C38.2648 22.0767 38.5462 22.4218 38.6369 22.8986Z"/><path fill="#002140" d="M35.6476 23.2059C35.7351 23.6796 35.5945 24.1031 35.3319 24.1533C35.0724 24.2034 34.7879 23.8584 34.7004 23.3847C34.6097 22.9079 34.7504 22.4876 35.013 22.4343C35.2756 22.3841 35.5569 22.7292 35.6476 23.2059Z"/><path fill="#002140" d="M41.2582 28.2812C41.6177 28.2812 41.9053 28.8616 41.9053 29.5767C41.9053 30.2919 41.6177 30.8722 41.2582 30.8722C40.8987 30.8722 40.6143 30.2919 40.6143 29.5767C40.6143 28.8616 40.9019 28.2812 41.2582 28.2812Z"/><path fill="#002140" d="M38.6362 28.2812C38.9957 28.2812 39.2833 28.8616 39.2833 29.5767C39.2833 30.2919 38.9957 30.8722 38.6362 30.8722C38.2767 30.8722 37.9922 30.2919 37.9922 29.5767C37.9922 28.8616 38.2798 28.2812 38.6362 28.2812Z"/><path fill="#002140" d="M32.2089 38.1497V39.5581C32.2089 41.1923 27.082 41.1923 27.082 39.5581V38.1497C27.082 39.7839 32.2089 39.7839 32.2089 38.1497Z"/><path fill="#002140" d="M20.9179 38.1497V39.5581C20.9179 41.1923 15.791 41.1923 15.791 39.5581V38.1497C15.791 39.7839 20.9179 39.7839 20.9179 38.1497Z"/><path fill="#F68DFE" d="M9.20382 26.6721C9.20382 26.76 9.20382 26.8478 9.20695 26.9356H9.20382C9.20382 26.9356 7.95962 27.4124 6.76544 26.8698C6.3059 26.6596 5.99329 26.3585 5.79009 26.0228C5.4681 25.4896 5.42121 24.8748 5.50561 24.4231C5.55876 24.1282 5.69631 23.871 5.89325 23.6671C6.18398 23.366 6.60288 23.1903 7.06868 23.2091C7.85021 23.2342 8.42229 23.871 8.43479 24.398C8.4473 24.925 8.27849 25.3422 7.82207 25.5272C8.19721 25.5994 8.663 25.5837 9.2007 25.4708L9.26322 25.477C9.22258 25.866 9.2007 26.2644 9.2007 26.6721H9.20382Z"/><path fill="#F68DFE" d="M4.78343 22.1585C5.28049 21.7225 5.81818 22.1585 5.6525 22.72C5.49932 23.2376 5.84319 23.614 5.89321 23.6705C5.69626 23.8712 5.55871 24.1316 5.50557 24.4264C5.42116 24.875 5.46806 25.4929 5.79005 26.0262C4.81157 25.5902 4.47082 24.6711 4.36766 24.0061C4.2645 23.3411 4.45832 22.4471 4.78343 22.1617V22.1585Z"/><path fill="#FBCCFF" d="M31.0809 27.5474C32.0844 27.5474 32.9003 28.3629 32.9003 29.373C32.9003 30.383 32.0875 31.1954 31.0809 31.1954C30.0743 31.1954 29.2646 30.3799 29.2646 29.373C29.2646 28.3661 30.0774 27.5474 31.0809 27.5474Z"/><path fill="#F68DFE" d="M39.3677 16.3458C41.1277 16.672 41.0527 17.8515 40.8338 18.6984C40.615 19.5485 39.8522 20.8596 39.3645 21.6752C38.1829 19.3195 36.1509 17.5378 33.6875 16.5089C35.7195 16.2329 37.7734 16.0917 39.3708 16.3458H39.3677Z"/><path fill="#F68DFE" d="M40.4052 25.2167L40.3583 25.5147C44.1159 26.1358 43.9471 33.6766 39.8488 33.6766H38.2607C36.8445 35.4552 34.7907 36.7068 32.2054 37.3686V38.1465C32.2054 39.7808 27.0785 39.7808 27.0785 38.1465V37.9113C24.9246 37.9772 22.7707 38.0054 20.9138 37.9113V38.1465C20.9138 39.7808 15.7869 39.7808 15.7869 38.1465V36.9452C11.9574 35.3423 9.30023 31.5248 9.20332 26.9325C9.20019 26.8447 9.2002 26.7569 9.2002 26.6691C9.2002 26.2613 9.22208 25.866 9.26272 25.4739C9.81917 19.972 14.2114 16.095 19.7634 15.5648H19.7728C19.7728 15.5962 19.7728 15.6276 19.7728 15.6589C19.7728 16.1232 19.8697 16.5623 20.0447 16.9607V16.9733C22.0142 16.8478 23.9837 16.8258 25.9531 16.9105C26.347 16.9262 26.7378 16.9482 27.1317 16.9733V16.9638C27.3067 16.5655 27.4036 16.1263 27.4036 15.6621C27.4036 15.5648 27.4005 15.4676 27.388 15.3704H27.4036C28.4915 15.4143 29.5106 15.4927 30.361 15.6182C31.5239 15.7719 32.643 16.073 33.684 16.509C36.1505 17.5379 38.1794 19.3196 39.3611 21.6753C39.8956 22.7418 40.2551 23.9275 40.4052 25.2167ZM41.9057 29.5737C41.9057 28.8585 41.6181 28.2782 41.2586 28.2782C40.8991 28.2782 40.6147 28.8585 40.6147 29.5737C40.6147 30.2889 40.9023 30.8692 41.2586 30.8692C41.615 30.8692 41.9057 30.2889 41.9057 29.5737ZM39.2829 29.5737C39.2829 28.8585 38.9953 28.2782 38.6358 28.2782C38.2763 28.2782 37.9918 28.8585 37.9918 29.5737C37.9918 30.2889 38.2794 30.8692 38.6358 30.8692C38.9922 30.8692 39.2829 30.2889 39.2829 29.5737ZM38.3232 23.846C38.5858 23.7958 38.7265 23.3723 38.6389 22.8986C38.5483 22.4219 38.2669 22.0768 38.0043 22.127C37.7417 22.1772 37.6011 22.6006 37.6917 23.0774C37.7793 23.5511 38.0637 23.8961 38.3232 23.846ZM35.3315 24.1534C35.5941 24.1032 35.7348 23.6797 35.6472 23.206C35.5566 22.7293 35.2752 22.3842 35.0126 22.4344C34.75 22.4846 34.6094 22.9081 34.7 23.3848C34.7875 23.8585 35.072 24.2035 35.3315 24.1534ZM32.8994 29.3698C32.8994 28.3629 32.0866 27.5442 31.08 27.5442C30.0733 27.5442 29.2637 28.3598 29.2637 29.3698C29.2637 30.3799 30.0765 31.1923 31.08 31.1923C32.0835 31.1923 32.8994 30.3767 32.8994 29.3698Z"/><path stroke="#002140" stroke-linecap="round" stroke-linejoin="round" d="M36.5918 25.4709H39.8523"/><path stroke="#002140" stroke-linecap="round" stroke-linejoin="round" d="M36.5918 33.6768H38.2611H39.8523"/><path stroke="#002140" stroke-linecap="round" stroke-linejoin="round" d="M39.8525 25.4709C40.0307 25.4709 40.1995 25.4866 40.3621 25.5149C44.1197 26.1359 43.9509 33.6768 39.8525 33.6768"/><path stroke="#002140" stroke-linecap="round" stroke-linejoin="round" d="M22.9808 3.68896C24.7502 3.68896 26.1883 5.12875 26.1883 6.90731C26.1883 8.68586 24.7534 10.1256 22.9808 10.1256C21.2083 10.1256 19.7734 8.68586 19.7734 6.90731C19.7734 5.12875 21.2083 3.68896 22.9808 3.68896Z"/><path stroke="#002140" stroke-linecap="round" stroke-linejoin="round" d="M24.1992 3.68896C25.9686 3.68896 27.4066 5.12875 27.4066 6.90731C27.4066 8.68586 25.9717 10.1256 24.1992 10.1256"/><path stroke="#002140" stroke-linecap="round" stroke-linejoin="round" d="M22.9805 10.1255H24.1997"/><path stroke="#002140" stroke-linecap="round" stroke-linejoin="round" d="M22.9805 3.68896H24.1997"/><path stroke="#002140" stroke-linecap="round" stroke-linejoin="round" d="M20.0454 16.9637C19.8703 16.5653 19.7734 16.1262 19.7734 15.6619C19.7734 15.6306 19.7734 15.5992 19.7734 15.5678C19.8235 13.8332 21.2396 12.4436 22.9808 12.4436C24.7221 12.4436 26.1883 13.8834 26.1883 15.6619C26.1883 16.0854 26.1038 16.4901 25.9569 16.8633"/><path stroke="#002140" stroke-linecap="round" stroke-linejoin="round" d="M24.1992 12.4468C25.8717 12.4468 27.2441 13.7329 27.391 15.3734C27.4004 15.4706 27.4066 15.5679 27.4066 15.6651C27.4066 16.1294 27.3097 16.5685 27.1347 16.9669"/><path stroke="#002140" stroke-linecap="round" stroke-linejoin="round" d="M22.9805 12.4468H24.1997"/><path stroke="#002140" stroke-linecap="round" stroke-linejoin="round" d="M15.7909 36.9482C11.9613 35.3453 9.30414 31.5278 9.20723 26.9356C9.2041 26.8477 9.2041 26.7599 9.2041 26.6721C9.2041 26.2643 9.22598 25.8691 9.26662 25.477C9.82308 19.9751 14.2153 16.098 19.7673 15.5679"/><path stroke="#002140" stroke-linecap="round" stroke-linejoin="round" d="M38.2614 33.6768C36.8452 35.4553 34.7914 36.7069 32.2061 37.3688"/><path stroke="#002140" stroke-linecap="round" stroke-linejoin="round" d="M30.3643 15.6179C31.5272 15.7716 32.6463 16.0728 33.6873 16.5088C36.1538 17.5376 38.1827 19.3193 39.3644 21.6751C39.8989 22.7416 40.2585 23.9273 40.4085 25.2165C40.4179 25.3012 40.4273 25.3859 40.4335 25.4706"/><path stroke="#002140" stroke-linecap="round" stroke-linejoin="round" d="M27.4072 15.3704C28.4951 15.4143 29.5142 15.4927 30.3645 15.6182"/><path stroke="#002140" stroke-linecap="round" stroke-linejoin="round" d="M20.917 37.9146C22.7739 38.0087 24.9278 37.9804 27.0817 37.9146"/><path stroke="#002140" stroke-linecap="round" stroke-linejoin="round" d="M15.791 39.558V38.1496V36.9482"/><path stroke="#002140" stroke-linecap="round" stroke-linejoin="round" d="M20.917 39.5582V38.1498V37.9146"/><path stroke="#002140" stroke-linecap="round" stroke-linejoin="round" d="M15.791 39.5581C15.791 41.1924 20.9179 41.1924 20.9179 39.5581"/><path stroke="#002140" stroke-linecap="round" stroke-linejoin="round" d="M15.791 38.1497C15.791 39.7839 20.9179 39.7839 20.9179 38.1497"/><path stroke="#002140" stroke-linecap="round" stroke-linejoin="round" d="M27.082 39.5582V38.1498V37.9146"/><path stroke="#002140" stroke-linecap="round" stroke-linejoin="round" d="M32.209 39.558V38.1496V37.3999"/><path stroke="#002140" stroke-linecap="round" stroke-linejoin="round" d="M27.082 39.5581C27.082 41.1924 32.2089 41.1924 32.2089 39.5581"/><path stroke="#002140" stroke-linecap="round" stroke-linejoin="round" d="M27.082 38.1497C27.082 39.7839 32.2089 39.7839 32.2089 38.1497"/><path stroke="#002140" stroke-linecap="round" stroke-linejoin="round" d="M18.8574 17.064C19.2544 17.0326 19.6483 17.0013 20.0454 16.9762C22.0148 16.8507 23.9843 16.8287 25.9537 16.9134C26.3476 16.9291 26.7384 16.9511 27.1323 16.9762C27.5418 17.0013 27.9576 17.0326 28.3702 17.0671"/><path stroke="#002140" stroke-linecap="round" stroke-linejoin="round" d="M39.2833 29.5736C39.2833 30.2888 38.9957 30.8691 38.6362 30.8691C38.2767 30.8691 37.9922 30.2888 37.9922 29.5736C37.9922 28.8584 38.2798 28.2781 38.6362 28.2781C38.9925 28.2781 39.2833 28.8584 39.2833 29.5736Z"/><path stroke="#002140" stroke-linecap="round" stroke-linejoin="round" d="M41.9053 29.5736C41.9053 30.2888 41.6177 30.8691 41.2582 30.8691C40.8987 30.8691 40.6143 30.2888 40.6143 29.5736C40.6143 28.8584 40.9019 28.2781 41.2582 28.2781C41.6146 28.2781 41.9053 28.8584 41.9053 29.5736Z"/><path stroke="#002140" stroke-linecap="round" stroke-linejoin="round" d="M26.3379 20.3263C27.3758 19.2128 29.0733 17.9486 30.0799 17.5753C31.0834 17.2052 31.7086 17.2617 32.6902 18.1525C33.6718 19.0402 34.6909 20.5898 34.6909 20.5898"/><path stroke="#002140" stroke-linecap="round" stroke-linejoin="round" d="M33.6846 16.5059C35.7166 16.233 37.7704 16.0887 39.3679 16.3459C41.1279 16.6721 41.0529 17.8515 40.834 18.6985C40.6152 19.5485 39.8524 20.8597 39.3647 21.6753"/><path stroke="#002140" stroke-linecap="round" stroke-linejoin="round" d="M35.6476 23.2059C35.7351 23.6796 35.5945 24.1031 35.3319 24.1533C35.0724 24.2034 34.7879 23.8584 34.7004 23.3847C34.6097 22.9079 34.7504 22.4876 35.013 22.4343C35.2756 22.3841 35.5569 22.7292 35.6476 23.2059Z"/><path stroke="#002140" stroke-linecap="round" stroke-linejoin="round" d="M38.6369 22.8986C38.7244 23.3722 38.5837 23.7957 38.3211 23.8459C38.0617 23.8961 37.7772 23.551 37.6896 23.0774C37.599 22.6006 37.7397 22.1802 38.0023 22.1269C38.2648 22.0767 38.5462 22.4218 38.6369 22.8986Z"/><path stroke="#002140" stroke-linecap="round" stroke-linejoin="round" d="M6.83008 24.6677C6.94262 25.1382 7.28962 25.4268 7.82419 25.5272C8.19932 25.5994 8.66512 25.5837 9.20281 25.4707"/><path stroke="#002140" stroke-linecap="round" stroke-linejoin="round" d="M9.20382 26.9356C9.20382 26.9356 7.95962 27.4124 6.76544 26.8698C6.3059 26.6596 5.99329 26.3585 5.79009 26.0228C5.4681 25.4896 5.42121 24.8748 5.50561 24.4231C5.55876 24.1282 5.69631 23.871 5.89325 23.6671C6.18398 23.366 6.60288 23.1903 7.06868 23.2091C7.85021 23.2342 8.42229 23.871 8.4348 24.398C8.4473 24.925 8.27849 25.3422 7.82207 25.5272"/><path stroke="#002140" stroke-linecap="round" stroke-linejoin="round" d="M5.90315 23.6767L5.89377 23.6673C5.84063 23.6108 5.49988 23.2344 5.65306 22.7169C5.81874 22.1554 5.28105 21.7194 4.784 22.1554C4.462 22.4408 4.26818 23.3317 4.36822 23.9998C4.47138 24.6648 4.81213 25.587 5.79061 26.0199"/></svg>

<svg xmlns="http://www.w3.org/2000/svg" width="48" height="48" fill="none" viewBox="0 0 48 48"><path fill="#fed607" d="M26.188 15.662c0 .423-.084.828-.231 1.201v.05a56 56 0 0 0-5.912.063v-.012a3.2 3.2 0 0 1-.272-1.302v-.094a3.213 3.213 0 0 1 3.208-3.124c1.741 0 3.207 1.44 3.207 3.218M22.98 3.689c1.77 0 3.208 1.44 3.208 3.218a3.21 3.21 0 0 1-3.207 3.219 3.21 3.21 0 0 1-3.208-3.219 3.21 3.21 0 0 1 3.208-3.218"/><path fill="#002140" d="M24.2 3.689a3.213 3.213 0 0 1 3.207 3.218 3.21 3.21 0 0 1-3.207 3.219h-1.22c1.77 0 3.208-1.44 3.208-3.219A3.21 3.21 0 0 0 22.98 3.69zm0 8.758a3.21 3.21 0 0 1 3.191 2.926q.016.147.016.292c0 .464-.097.904-.272 1.302v.01q-.592-.037-1.179-.064v-.05c.15-.37.232-.774.232-1.201a3.213 3.213 0 0 0-3.207-3.218H24.2zm14.437 10.452c.087.473-.053.897-.316.947-.26.05-.544-.295-.631-.769-.091-.476.05-.897.312-.95.263-.05.544.295.635.772m-2.989.307c.087.474-.054.897-.316.947-.26.05-.544-.295-.632-.768-.09-.477.05-.897.313-.95.263-.05.544.294.635.77m5.61 5.076c.36 0 .647.58.647 1.296 0 .715-.287 1.295-.647 1.295s-.644-.58-.644-1.295.288-1.296.644-1.296m-2.622 0c.36 0 .647.58.647 1.296 0 .715-.287 1.295-.647 1.295s-.644-.58-.644-1.295.288-1.296.644-1.296m-6.427 9.869v1.408c0 1.634-5.127 1.634-5.127 0V38.15c0 1.634 5.127 1.634 5.127 0m-11.291 0v1.408c0 1.634-5.127 1.634-5.127 0V38.15c0 1.634 5.127 1.634 5.127 0"/><path fill="#f68dfe" d="M9.204 26.672q0 .132.003.264h-.003s-1.244.476-2.439-.066a2.16 2.16 0 0 1-.975-.847 2.34 2.34 0 0 1-.284-1.6c.053-.295.19-.552.387-.756.291-.301.71-.477 1.176-.458.781.025 1.353.662 1.366 1.189.012.527-.157.944-.613 1.13.375.071.841.056 1.379-.057l.062.006q-.061.583-.062 1.195z"/><path fill="#f68dfe" d="M4.783 22.159c.497-.436 1.035 0 .87.561-.154.518.19.894.24.95a1.44 1.44 0 0 0-.387.756 2.35 2.35 0 0 0 .284 1.6c-.978-.436-1.32-1.355-1.422-2.02-.104-.665.09-1.559.415-1.844z"/><path fill="#fbccff" d="M31.08 27.547c1.004 0 1.82.816 1.82 1.826a1.818 1.818 0 1 1-3.635 0c0-1.007.812-1.826 1.816-1.826"/><path fill="#f68dfe" d="M39.368 16.346c1.76.326 1.685 1.506 1.466 2.352-.219.85-.982 2.162-1.47 2.977-1.181-2.355-3.213-4.137-5.676-5.166 2.031-.276 4.085-.417 5.683-.163z"/><path fill="#f68dfe" d="m40.405 25.217-.047.298c3.758.62 3.59 8.162-.51 8.162h-1.587c-1.417 1.778-3.47 3.03-6.056 3.692v.778c0 1.634-5.126 1.634-5.126 0v-.236c-2.154.066-4.308.094-6.165 0v.236c0 1.634-5.127 1.634-5.127 0v-1.202c-3.83-1.603-6.487-5.42-6.584-10.012Q9.2 26.8 9.2 26.669c0-.408.022-.803.063-1.195.556-5.502 4.948-9.379 10.5-9.91h.01v.095c0 .464.097.903.272 1.302v.012a55 55 0 0 1 7.087 0v-.01a3.2 3.2 0 0 0 .256-1.593h.016c1.087.044 2.107.123 2.957.248 1.163.154 2.282.455 3.323.891 2.467 1.029 4.495 2.81 5.677 5.166a10.6 10.6 0 0 1 1.044 3.542m1.5 4.357c0-.716-.287-1.296-.646-1.296s-.644.58-.644 1.296c0 .715.287 1.295.644 1.295.356 0 .647-.58.647-1.295m-2.622 0c0-.716-.288-1.296-.647-1.296s-.644.58-.644 1.296c0 .715.287 1.295.644 1.295.356 0 .647-.58.647-1.295m-.96-5.728c.263-.05.404-.474.316-.947-.09-.477-.372-.822-.635-.772-.262.05-.403.474-.312.95.087.474.372.82.631.769m-2.992.307c.263-.05.404-.473.316-.947-.09-.477-.372-.822-.634-.772-.263.05-.404.474-.313.95.087.474.372.82.631.77M32.9 29.37a1.818 1.818 0 1 0-3.636 0 1.817 1.817 0 1 0 3.636 0"/><path stroke="#002140" stroke-linecap="round" stroke-linejoin="round" d="M36.592 25.47h3.26m-3.26 8.207h3.26m.001-8.207q.265.002.51.045c3.757.62 3.588 8.162-.51 8.162M22.98 3.689c1.77 0 3.208 1.44 3.208 3.218a3.21 3.21 0 0 1-3.207 3.219 3.21 3.21 0 0 1-3.208-3.219 3.21 3.21 0 0 1 3.208-3.218"/><path stroke="#002140" stroke-linecap="round" stroke-linejoin="round" d="M24.2 3.689a3.213 3.213 0 0 1 3.207 3.218 3.21 3.21 0 0 1-3.208 3.219m-1.219 0h1.22m-1.22-6.437h1.22m-4.155 13.275a3.2 3.2 0 0 1-.272-1.302v-.094a3.213 3.213 0 0 1 3.208-3.124c1.741 0 3.207 1.44 3.207 3.218 0 .423-.084.828-.231 1.201"/><path stroke="#002140" stroke-linecap="round" stroke-linejoin="round" d="M24.2 12.447a3.21 3.21 0 0 1 3.191 2.926q.016.147.016.292c0 .464-.097.904-.272 1.302m-4.155-4.52h1.22m-8.41 24.501c-3.829-1.603-6.486-5.42-6.583-10.012q-.004-.132-.003-.264c0-.408.022-.803.063-1.195.556-5.502 4.948-9.379 10.5-9.91m18.494 18.11c-1.416 1.778-3.47 3.03-6.055 3.692m-1.842-21.751c1.163.154 2.282.455 3.323.89 2.467 1.03 4.496 2.811 5.677 5.167a10.6 10.6 0 0 1 1.07 3.796M27.407 15.37c1.088.044 2.107.123 2.957.248m-9.447 22.297c1.857.094 4.01.065 6.165 0m-11.291 1.643v-2.61m5.126 2.61v-1.643m-5.126 1.643c0 1.634 5.127 1.634 5.127 0"/><path stroke="#002140" stroke-linecap="round" stroke-linejoin="round" d="M15.791 38.15c0 1.634 5.127 1.634 5.127 0m6.164 1.408v-1.643m5.127 1.643V37.4m-5.127 2.158c0 1.634 5.127 1.634 5.127 0"/><path stroke="#002140" stroke-linecap="round" stroke-linejoin="round" d="M27.082 38.15c0 1.634 5.127 1.634 5.127 0M18.857 17.064c.397-.031.791-.063 1.188-.088a55 55 0 0 1 7.087 0c.41.025.826.057 1.238.091m10.913 12.507c0 .715-.287 1.295-.647 1.295s-.644-.58-.644-1.295c0-.716.288-1.296.644-1.296s.647.58.647 1.296m2.622 0c0 .715-.287 1.295-.647 1.295s-.644-.58-.644-1.295c0-.716.288-1.296.644-1.296s.647.58.647 1.296m-15.567-9.248c1.038-1.113 2.735-2.377 3.742-2.75 1.003-.37 1.629-.314 2.61.576.982.888 2 2.438 2 2.438m-1.005-4.084c2.032-.273 4.085-.417 5.683-.16 1.76.326 1.685 1.506 1.466 2.352-.219.85-.982 2.162-1.47 2.977m-3.716 1.531c.087.474-.054.897-.316.947-.26.05-.544-.295-.632-.768-.09-.477.05-.897.313-.95.263-.05.544.294.635.77m2.989-.306c.087.473-.053.897-.316.947-.26.05-.544-.295-.631-.769-.091-.476.05-.897.312-.95.263-.05.544.295.635.772M6.83 24.668c.113.47.46.759.994.86.375.071.841.056 1.379-.057"/><path stroke="#002140" stroke-linecap="round" stroke-linejoin="round" d="M9.204 26.936s-1.244.476-2.439-.066a2.16 2.16 0 0 1-.975-.847 2.34 2.34 0 0 1-.284-1.6c.053-.295.19-.552.387-.756.291-.301.71-.477 1.176-.458.781.025 1.353.662 1.366 1.189.012.527-.157.944-.613 1.13"/><path stroke="#002140" stroke-linecap="round" stroke-linejoin="round" d="m5.903 23.677-.01-.01c-.052-.056-.393-.433-.24-.95.166-.562-.372-.998-.869-.562-.322.286-.516 1.177-.416 1.845.103.665.444 1.587 1.423 2.02"/></svg>
